10/img/vectors/icon-house.svg

<svg width="40" height="38" viewBox="0 0 40 38" fill="none" xmlns="http://www.w3.org/2000/svg">
<path d="M15.9015 33.8041H24.2549V21.646H15.9015V33.8041ZM22.7408 32.3289H17.4155V23.1212H22.6886V32.3289H22.7408Z" fill="#81B3D2"/>
<path d="M38.4036 20.6278L39.5 19.5595L34.3313 14.5233V0.7882H27.1265V7.50314L19.9739 0.584717L0.5 19.6104L1.59639 20.6787L5.66867 16.7108V35.9399H3.63253V37.4152H36.994V35.9399H34.3313V16.6599L38.4036 20.6278ZM28.6406 2.31432H32.7651V13.0481L28.6406 9.02927V2.31432ZM32.8173 35.889H7.23494V15.1846L19.9739 2.72129L32.7651 15.1846V35.889H32.8173Z" fill="#81B3D2"/>
<path d="M16.0582 14.4216C16.0582 16.609 17.8855 18.3895 20.0783 18.3895C22.3233 18.3895 24.1506 16.609 24.1506 14.4216C24.1506 12.2341 22.3233 10.5045 20.0783 10.5045C17.8333 10.5045 16.0582 12.2341 16.0582 14.4216ZM20.0783 11.878C21.4879 11.878 22.6888 12.9972 22.6888 14.4216C22.6888 15.7951 21.5402 16.9651 20.0783 16.9651C18.6687 16.9651 17.4679 15.846 17.4679 14.4216C17.4679 13.0481 18.6687 11.878 20.0783 11.878Z" fill="#81B3D2"/>
<path d="M10.8895 21.646H9.32324V23.63H10.8895V21.646Z" fill="#81B3D2"/>
<path d="M13.9698 21.646H12.4036V23.63H13.9698V21.646Z" fill="#81B3D2"/>
<path d="M10.8895 24.6975H9.32324V26.6815H10.8895V24.6975Z" fill="#81B3D2"/>
<path d="M13.9698 24.6975H12.4036V26.6815H13.9698V24.6975Z" fill="#81B3D2"/>
<path d="M27.5443 21.646H25.978V23.63H27.5443V21.646Z" fill="#81B3D2"/>
<path d="M30.6769 21.646H29.1106V23.63H30.6769V21.646Z" fill="#81B3D2"/>
<path d="M27.5443 24.6975H25.978V26.6815H27.5443V24.6975Z" fill="#81B3D2"/>
<path d="M30.6769 24.6975H29.1106V26.6815H30.6769V24.6975Z" fill="#81B3D2"/>
</svg>

<svg width="40" height="38" fill="none" xmlns="http://www.w3.org/2000/svg"><path d="M15.902 33.804h8.353V21.646h-8.353v12.158zm6.839-1.475h-5.325V23.12h5.273v9.208h.052z" fill="#81B3D2"/><path d="M38.404 20.628l1.096-1.069-5.169-5.036V.788h-7.205v6.715L19.974.585.5 19.61l1.096 1.069L5.67 16.71v19.23H3.633v1.475h33.361V35.94h-2.663V16.66l4.073 3.968zM28.64 2.314h4.124v10.734L28.641 9.03V2.314zm4.176 33.575H7.235V15.185L19.974 2.72l12.791 12.464v20.704h.052z" fill="#81B3D2"/><path d="M16.058 14.422c0 2.187 1.828 3.968 4.02 3.968 2.245 0 4.073-1.781 4.073-3.968 0-2.188-1.828-3.918-4.073-3.918s-4.02 1.73-4.02 3.918zm4.02-2.544c1.41 0 2.61 1.12 2.61 2.544 0 1.373-1.148 2.543-2.61 2.543-1.41 0-2.61-1.119-2.61-2.543 0-1.374 1.2-2.544 2.61-2.544zm-9.188 9.768H9.322v1.984h1.566v-1.984zm3.08 0h-1.566v1.984h1.566v-1.984zm-3.08 3.052H9.322v1.983h1.566v-1.983zm3.08 0h-1.566v1.983h1.566v-1.983zm13.574-3.052h-1.566v1.984h1.566v-1.984zm3.133 0H29.11v1.984h1.566v-1.984zm-3.133 3.052h-1.566v1.983h1.566v-1.983zm3.133 0H29.11v1.983h1.566v-1.983z" fill="#81B3D2"/></svg>
